X: 565
T: Fragrant Blossoms.
T: bla.ta dea.g.bolai.g.
R:jig
N:"With spirit."
B:O'Neill's 565
Z:Transcribed by J.B. Walsh walsh@math.ubc.ca
M:6/8
L:1/8
%Q:110
K:C
G|c2 e (ef).g|d2 d (de).f|e2c A2d|B G2 z2G|
c2 e (ef).g|d2 d afd|e2c d2g|ec2z2||
e|d2 g edc|Bcd G2 (d/c/)|d2 g e2c|B d2 z2 G|
c2g edc|Ade f2 f|e2 c d2g|e c2 z2||


